communes/4666.svg

<?xml version="1.0" encoding="UTF-8" standalone="no"?>
<!-- Created with Inkscape (http://www.inkscape.org/) -->

<svg
   xmlns:dc="http://purl.org/dc/elements/1.1/"
   xmlns:cc="http://creativecommons.org/ns#"
   xmlns:rdf="http://www.w3.org/1999/02/22-rdf-syntax-ns#"
   xmlns:svg="http://www.w3.org/2000/svg"
   xmlns="http://www.w3.org/2000/svg"
   xmlns:sodipodi="http://sodipodi.sourceforge.net/DTD/sodipodi-0.dtd"
   xmlns:inkscape="http://www.inkscape.org/namespaces/inkscape"
   version="1.0"
   width="208.86046"
   height="244.65999"
   id="svg2780"
   inkscape:version="0.92.3 (2405546, 2018-03-11)"
   sodipodi:docname="Kemmental-blazon.svg">
  <metadata
     id="metadata27">
    <rdf:RDF>
      <cc:Work
         rdf:about="">
        <dc:format>image/svg+xml</dc:format>
        <dc:type
           rdf:resource="http://purl.org/dc/dcmitype/StillImage" />
        <dc:title></dc:title>
      </cc:Work>
    </rdf:RDF>
  </metadata>
  <sodipodi:namedview
     pagecolor="#ffffff"
     bordercolor="#666666"
     borderopacity="1"
     objecttolerance="10"
     gridtolerance="10"
     guidetolerance="10"
     inkscape:pageopacity="0"
     inkscape:pageshadow="2"
     inkscape:window-width="1752"
     inkscape:window-height="1281"
     id="namedview25"
     showgrid="false"
     inkscape:zoom="2.8284271"
     inkscape:cx="118.56346"
     inkscape:cy="59.608492"
     inkscape:window-x="43"
     inkscape:window-y="114"
     inkscape:window-maximized="0"
     inkscape:current-layer="svg2780"
     inkscape:measure-start="104.255,149.787"
     inkscape:measure-end="104.255,126.383"
     inkscape:object-paths="false"
     inkscape:snap-intersection-paths="true"
     inkscape:snap-nodes="false" />
  <defs
     id="defs2782" />
  <path
     inkscape:connector-curvature="0"
     style="fill:#feeb00;fill-opacity:1;fill-rule:evenodd;stroke:#000000;stroke-width:1.99999988;stroke-linecap:butt;stroke-miterlimit:4;stroke-dashoffset:0;stroke-opacity:1"
     id="path4212"
     d="m 1,1 3.761095,158.00304 c 2.686489,112.85918 196.651755,112.85918 199.338255,0 L 207.86045,1 Z" />
  <path
     style="fill:#000000;fill-rule:evenodd;stroke:#000000;stroke-width:1px;stroke-linecap:butt;stroke-linejoin:miter;stroke-opacity:1;fill-opacity:1"
     d="m 3.3494791,99.701268 1.4234917,60.282682 85.1853272,4.50899 z"
     id="path32800"
     inkscape:connector-curvature="0" />
  <path
     style="fill:#000000;fill-rule:evenodd;stroke:#000000;stroke-width:1px;stroke-linecap:butt;stroke-linejoin:miter;stroke-opacity:1;fill-opacity:1"
     d="M 81.171075,1 H 127.68941 L 104.43024,175.31934 Z"
     id="path32804"
     inkscape:connector-curvature="0" />
  <path
     style="fill:#000000;fill-rule:evenodd;stroke:#000000;stroke-width:1px;stroke-linecap:butt;stroke-linejoin:miter;stroke-opacity:1;fill-opacity:1"
     d="m 205.51097,99.701296 -86.08836,64.402324 84.31253,0.38814 z"
     id="path32806"
     inkscape:connector-curvature="0" />
  <path
     style="fill:#000000;fill-rule:evenodd;stroke:#000000;stroke-width:1px;stroke-linecap:butt;stroke-linejoin:miter;stroke-opacity:1;fill-opacity:1"
     d="M 1.7943367,34.369967 104.43023,175.31933 31.153142,1 H 1 Z"
     id="path32810"
     inkscape:connector-curvature="0" />
  <path
     style="fill:#000000;fill-rule:evenodd;stroke:#000000;stroke-width:1px;stroke-linecap:butt;stroke-linejoin:miter;stroke-opacity:1;fill-opacity:1"
     d="M 177.70735,1 104.43024,175.31939 207.06611,34.370022 207.86045,1 Z"
     id="path32812"
     inkscape:connector-curvature="0" />
  <path
     id="path10251"
     style="fill:#5f49ff;fill-opacity:1;fill-rule:evenodd;stroke:#ffffff;stroke-width:1.79999995;stroke-linecap:butt;stroke-linejoin:miter;stroke-miterlimit:4;stroke-dasharray:none;stroke-opacity:1"
     d="m 8.0626546,181.50364 c 3.9594374,-1.85067 8.0833844,-3.21565 12.6335624,-3.33632 15.013894,-0.39818 28.250228,14.59411 43.264416,14.61548 14.991456,-0.39756 25.331069,-14.18282 40.257157,-14.57868 15.01389,-0.39816 28.25023,14.59412 43.26442,14.61549 14.99146,-0.39757 25.33107,-14.18282 40.25718,-14.57867 4.48311,-0.1189 8.80774,1.13443 13.06853,2.95166 3.44167,-12.31517 3.18551,-18.21759 3.5488,-29.80752 -5.65362,-2.81508 -11.11433,-5.01532 -17.10835,-4.85635 -14.92612,0.39585 -25.26571,14.1811 -40.25717,14.57866 -15.0142,-0.0218 -28.25053,-15.01364 -43.26442,-14.61546 -14.926096,0.39584 -25.265709,14.18108 -40.257164,14.57866 -15.014189,-0.0218 -28.184232,-15.03578 -43.198125,-14.63759 -5.747523,0.15243 -10.8149827,2.29017 -15.7298467,4.88438 0.4597708,11.42062 0.065455,17.66333 3.5210103,30.18626 z"
     inkscape:connector-curvature="0"
     sodipodi:nodetypes="cscscsccscscscc" />
  <path
     inkscape:connector-curvature="0"
     style="fill:none;fill-opacity:1;fill-rule:evenodd;stroke:#000000;stroke-width:1.99999988;stroke-linecap:butt;stroke-miterlimit:4;stroke-dashoffset:0;stroke-opacity:1"
     id="path4212-5"
     d="M 1,0.99999834 4.761095,159.00304 c 2.686489,112.85918 196.651755,112.85918 199.338255,0 l 3.7611,-158.00304166 z" />
</svg>

<?xml version="1.0" encoding="UTF-8"?>
<svg version="1.0" viewBox="0 0 208.86 244.66" xmlns="http://www.w3.org/2000/svg" xmlns:cc="http://creativecommons.org/ns#" xmlns:dc="http://purl.org/dc/elements/1.1/" xmlns:rdf="http://www.w3.org/1999/02/22-rdf-syntax-ns#">
<metadata>
<rdf:RDF>
<cc:Work rdf:about="">
<dc:format>image/svg+xml</dc:format>
<dc:type rdf:resource="http://purl.org/dc/dcmitype/StillImage"/>
<dc:title/>
</cc:Work>
</rdf:RDF>
</metadata>
<path d="m1 1 3.7611 158c2.6865 112.86 196.65 112.86 199.34 0l3.7611-158z" fill="#feeb00" fill-rule="evenodd" stroke="#000" stroke-width="2"/>
<path d="m3.3495 99.701 1.4235 60.283 85.185 4.509z" fill-rule="evenodd" stroke="#000" stroke-width="1px"/>
<path d="m81.171 1h46.518l-23.259 174.32z" fill-rule="evenodd" stroke="#000" stroke-width="1px"/>
<path d="m205.51 99.701-86.088 64.402 84.313 0.38814z" fill-rule="evenodd" stroke="#000" stroke-width="1px"/>
<path d="m1.7943 34.37 102.64 140.95-73.277-174.32h-30.153z" fill-rule="evenodd" stroke="#000" stroke-width="1px"/>
<path d="m177.71 1-73.277 174.32 102.64-140.95 0.79434-33.37z" fill-rule="evenodd" stroke="#000" stroke-width="1px"/>
<path d="m8.0627 181.5c3.9594-1.8507 8.0834-3.2156 12.634-3.3363 15.014-0.39818 28.25 14.594 43.264 14.615 14.991-0.39756 25.331-14.183 40.257-14.579 15.014-0.39816 28.25 14.594 43.264 14.615 14.991-0.39757 25.331-14.183 40.257-14.579 4.4831-0.1189 8.8077 1.1344 13.069 2.9517 3.4417-12.315 3.1855-18.218 3.5488-29.808-5.6536-2.8151-11.114-5.0153-17.108-4.8564-14.926 0.39585-25.266 14.181-40.257 14.579-15.014-0.0218-28.251-15.014-43.264-14.615-14.926 0.39584-25.266 14.181-40.257 14.579-15.014-0.0218-28.184-15.036-43.198-14.638-5.7475 0.15243-10.815 2.2902-15.73 4.8844 0.45977 11.421 0.065455 17.663 3.521 30.186z" fill="#5f49ff" fill-rule="evenodd" stroke="#fff" stroke-width="1.8"/>
<path d="m1 1 3.7611 158c2.6865 112.86 196.65 112.86 199.34 0l3.7611-158z" fill="none" stroke="#000" stroke-width="2"/>
</svg>
